X:1
T:Title
%%score { ( 1 4 ) | ( 2 3 ) }
L:1/8
Q:1/4=92
M:6/8
K:A
V:1 treble nm="Grand Piano"
V:4 treble 
V:2 bass 
V:3 bass 
V:1
 [CE][CE][CE] [CA]2 [EG] | F3 .B3 | AAA GFG | [CA]6 | [CE][CE][CE] [CA]2 [EG] | F3 .B3 | AAA GFG | %7
w: Wm.~J.~Kirkpatrick * * * *|||||||
 [CA]6 | BBB c2 c | B3 .G3 | [^DF][EG][FA] [GB]2 [FA] | G6 | BBB c2 c | [EB]3 .[Ge]3 | %14
w: |||||||
 FGA G2 [A,^DF] | [G,E]6 | [Ec]3- [Ec]BA | B2 B .B3 | .A6 | [^EG]2 [EG] .[EG]3 | FFF .[Fd]3 | %21
w: |||||||
 [CE][CE][CE] .[Ec]3 | cBA c2 B | [CA]6 |] %24
w: |||
V:2
 [A,,A,][A,,A,][A,,A,] [A,,A,]2 [C,A,] | A,3 z3 | [E,C][E,C][E,C] [E,B,D]2 [E,B,D] | [A,,A,]6 | %4
 [A,,A,][A,,A,][A,,A,] [A,,A,]2 [C,A,] | A,3 z3 | [E,C][E,C][E,C] [E,B,D]2 [E,B,D] | [A,,A,]6 | %8
 [E,G,E][E,G,E][E,G,E] [E,A,E]2 [E,A,E] | [E,E]3- [E,B,E]3 | %10
 [B,,B,][B,,B,][B,,B,] [B,,B,]2 [B,,B,] | [E,B,E]6 | [E,G,E][E,G,E][E,G,E] [E,A,E]2 [E,A,E] | %13
 [E,G,]3 .[E,B,]3 | [A,C][G,C^E][K:bass][F,CF] [B,=E]2 B,, | E,6 | A,A,A, A,[A,D][A,C] | %17
 [E,G,D]2 [E,G,D] .[E,G,D]3 | C-[F,C-][F,C] F,[F,B,C][F,A,C] | [C,C]2 [C,C] .[C,C]3 | %20
 [D,A,D][D,A,D][D,A,D] .[D,A,]3 | [A,,A,][A,,A,][A,,A,] .[A,,A,]3 | %22
 [E,A,E][E,G,D][E,A,C] [E,A,E]2 [E,G,D] | [A,,A,]6 |] %24
V:3
 x6 | [D,D]3- [D,F,D]3 | x6 | x6 | x6 | [D,D]3- [D,F,D]3 | x6 | x6 | x6 | G,3 z3 | x6 | x6 | x6 | %13
 x6 | x2[K:bass] x4 | x6 | x6 | x6 | .[F,A,]3 z3 | x6 | x6 | x6 | x6 | x6 |] %24
V:4
 x6 | x6 | x6 | x6 | x6 | x6 | x6 | x6 | x6 | x6 | x6 | x6 | x6 | x6 | x6 | x6 | x6 | x6 | %18
 z A,A, CGF | x6 | x6 | x6 | x6 | x6 |] %24

